X:1
T:[ID 2-67]
T:[ID 2-67]
T:Bezeichnung standardisiert: Polonaise Polonoise
T:Urheber unbekannt Datum in der hier transkribierten schriftlichen Quelle: 1767
C:Urheber unbekannt
C:Datum in der hier transkribierten schriftlichen Quelle: 1767
L:1/8
M:3/4
K:G
V:1 bass 
V:1
 G,,G,G,,G,G,,G, | G,B,/D/ G,B,/D/ D,2 | D,DD,DD,D | D,DD,DD,D | D,DD,DD,D | D,DD,DD,D | %6
 B,,2 G,,2 D,2 | G,2 B,,D, G,,2 :: G,,G,G,,G,G,,G, | F,,F,F,,F,F,,F, | E,2 G,2 E,2 | %11
 A,2 ^C,E, A,,2 |"^O)" A,,A,A,,A,A,,A, | A,,A,A,,A,A,,A, |"^O)" A,,A,A,,A,A,,A, | A,,A,A,,A,A,,A, | %16
 D,2 F,2 G,2 | D,2 A,,2 D,,2 | G,,G,G,,G,G,,G, | C,CC,CC,C | A,,A,A,,A,A,,A, |"^O)" D,DD,DD,D | %22
 D,DD,DD,D |"^O)" D,DD,DD,D | D,DD,DD,D | D,DD,DD,D | B,,2 G,,2 D,2 | G,2 B,,D, G,,2 :| %28

